Papirus-GTK/24x24/apps/teslagrad.svg

<svg height="24" width="24" xmlns="http://www.w3.org/2000/svg"><path d="m21.00768 9.9230828c0 4.6814682-5.534462 12.0769172-10.357929 12.0769172-4.823467 0-8.9559386-7.389949-8.6229409-12.4079149.2259485-3.4094766 4.4549694-7.6719474 6.9214525-7.5909479.8278943.0806244-.6616954.9115937.3313928.6408956.7526446-.2051586 1.5463896-.3148879 2.3665836-.3148879 4.823567 0 9.361436 2.91373 9.361436 7.5954479z" fill="#343054"/><path d="m18.841195 10.558078c0 3.531326-.982144 7.970946-4.599369 10.25193-1.178492.743495-2.406483 1.189992-3.591975 1.189992-.9704934 0-1.9129869-.298998-2.7964809-.817994-3.5091759-2.059486-3.637275-7.494949-3.3714268-11.5029215.7759446-4.0939719 2.8014307-3.8624735 5.1444647-4.523969.752995-.2051486 2.817481-.2570982 3.637475-.2570982 4.823567 0 5.577462.9784433 5.577462 5.6604607z" fill="#2e2e37"/><path d="m16.68871 13.699557c0 1.840337-1.690939 3.499676-2.588783 5.109965-1.076742 1.930937-.836844 2.340734-3.015529 2.340734-3.9953726-.000001-5.3149636-3.611675-5.3149636-7.658948 0-2.109685.1049043-4.7091174 1.5133397-6.0464582 1.2936411-1.2281416 3.4759759-1.5393394 5.3889629-1.5393394 2.120086 0 3.162178 1.5345395 3.782924 2.4919329.549096.8468442.234264 3.4025267.234264 5.3024637z" fill="#dabc9c"/><g fill="#405168" transform="matrix(.49999657 0 0 .49999657 -.49217261 .00015089)"><path d="m27.705 11.136a3.8893 8.4884 68.075 0 1 -6.4042 6.7784 3.8893 8.4884 68.075 0 1 -9.339-.42544 3.8893 8.4884 68.075 0 1  6.4042-6.7784 3.8893 8.4884 68.075 0 1  9.339.42544z"/><path d="m27.712 11.794c1.5661-1.4759 5.7867-2.4001 9.0122.98998 3.2255 3.39008 2.4864 12.487.92026 13.963-1.5661 1.4759-1.2146-6.5667-4.4401-9.9568-3.2255-3.3901-7.0585-3.5206-5.4923-4.9965z"/><path d="m12.744 16.563c2.0494 1.0756 2.3563 4.6803.68541 8.0514-1.6708 3.3711.42329 8.8454-1.6261 7.7698-2.0494-1.075-4.3252-6.833-2.6543-10.204 1.6713-3.371 1.5453-6.692 3.5953-5.617z"/></g><path d="m12.667737 5.6321123c.300128.6297456-.587096 1.2742912-2.375684 2.035436-1.6369884.6953452-3.3952763.9662934-4.2623204.6567955.02441.05387.05882.1039893.1030193.150039.586846.5902459 2.6577318.3906023 4.6250681-.445832 1.966587-.8360942 3.085229-1.9920363 2.498833-2.5821323-.08718-.085844-.435287.2395084-.588896.1856288z" fill="#fff" opacity=".1"/><path d="m18.1117 12.409066c.445697-.151089.121304-1.287441-.382073-2.387284-.281808-.6157456-.697695-1.3112409-1.194591-1.8524871-.414783-.4517869-.932044-.8059945-1.45569-1.1253423-.543747-.3315878-1.037093-.5712961-1.730889-.8088445.05828-.02098.430017-.4050772.501847-.4079272.678995-.01684-.681195-.5525962.188939.2767681.334407.3187428 2.376133 1.0489428 3.179428 2.0121362.683945.8200944.932043 1.9367868 1.199292 2.9706798.118764.459512.833344 1.39674.173488 1.41324-.138434.0022-.299522-.02831-.479746-.09088z" fill="#fff" opacity=".1"/><path d="m20.299185 8.9910892c.290328 1.8620368-.456667 4.5096688-1.368741 6.1609578-1.354541 2.452433-3.067529 4.026872-4.927466 5.625461 0 0 2.655182-4.643618 3.450326-7.17395.382073-1.215792.759695-2.507633.611046-3.7728745-.111484-.9490935-.426157-1.7143883-1.138792-2.3546839-.595946-.5354463-1.47774-.8558941-2.270785-.9803933-.861394-.135254-1.749238-.1585839-2.615482-.0585596-1.312391.151544-2.6983811.3221878-3.8369233.9893432-.6181457.3622376-1.1933918.8990939-1.4826398 1.5524394-.727145 1.6424887-.6654954 3.5994257-.3783274 5.3714627.3737374 2.306085 2.5650824 7.106452 2.5650824 7.106452l-.1240191-.04996c0 0-1.2497415-.575496-2.2512346-1.566289-.9784933-.966994-1.7029883-2.338984-2.2040849-3.256978-1.015143-1.859987-1.1708419-3.889973-.8106944-5.975959.2248484-2.0089861 1.1017924-3.6699747 2.4922829-4.7619672 2.764981-1.9421867 6.0264582-2.3962336 9.0589382-1.7170382 2.663231.5298963 4.792517 2.3115341 5.231464 4.8633166z" fill="#7f90bc" stroke="#33374a" stroke-linecap="round" stroke-linejoin="round" stroke-width=".34999758"/><rect fill="#302100" height=".53754622" rx=".36127755" ry=".36299247" transform="matrix(.90410992 -.42729995 .42441005 .90547011 0 0)" width="2.9267302" x="7.2107339" y="14.488227"/><rect fill="#302100" height=".51584452" rx=".32192725" ry=".34835631" transform="matrix(.93817159 .34617058 -.35268132 .9357435 0 0)" width="2.6079276" x="10.130404" y="7.0504484"/><ellipse cx="8.3132668" cy="12.556565" fill="#302100" rx=".68284529" ry="1.7264882"/><ellipse cx="13.072457" cy="12.301404" fill="#302100" rx=".72524178" ry="1.8170437" transform="matrix(.99995448 -.00954105 .06724277 .99773664 0 0)"/><path d="m12.433739 14.190054c.291068.345382 1.067242.525996 1.239191 1.029542.152494.446567-.03249.998644-.316438 1.378341-.164123.219474-.442667.394967-.719645.410222-.420842.02318-1.032793-.104269-1.157642-.499311-.03318-.105.06986-.248684.177174-.280253.264418-.07778.485657.413322.751695.341007.472657-.128479.906144-.718795.827444-1.193842-.07327-.442372-.883594-.415152-1.089742-.815094-.156519-.303653-.358458-.957443-.01772-1.020693.08692.187944.176654.492257.305673.649996z" fill="#302100"/><rect fill="#302100" height=".43869883" rx=".47367641" ry=".29624921" transform="matrix(.99450068 .10473007 -.34057857 .94021606 0 0)" width="3.8372712" x="15.527223" y="18.258207"/><path d="m8.9482626 2.0011372c-2.4664831-.081-6.695954 4.1814713-6.9219525 7.5909479-.01805.2724981-.02035.5539959-.01265.8394939.00305-.113499.0053-.227998.0127-.339497.2261485-3.4094769 4.4554194-7.6719477 6.9219525-7.5909483.0235.0023.0395.0072.0595.0107.146999-.1904487.4024973-.4657468-.0595-.5106965zm2.6979814.3261477c-.819994 0-1.613489.1092993-2.3659836.3144479-.0345.00935-.045.00785-.073499.01465.009.2526982-.6894953.6932952.073499.4853466.7524946-.2051486 1.5459896-.3144478 2.3659836-.3144478 4.728968 0 9.180437 2.8018308 9.353436 7.3234495.003-.076.008-.1529987.008-.2274982 0-4.6819679-4.537469-7.5959479-9.361436-7.5959479z" fill="#fff" opacity=".1"/><path d="m20.99968 9.6505847c-.171999 4.6894683-5.603462 11.8494183-10.350429 11.8494183-4.521969 0-8.5024417-6.493455-8.6464407-11.441421-.1254992 4.998466 3.9704727 11.941418 8.6464407 11.941418 4.823467 0 10.358429-7.395449 10.358429-12.0769172 0-.091934-.0044-.1818987-.0078-.2724581z" opacity=".3"/></svg>

<?xml version="1.0" encoding="UTF-8" standalone="no"?>
<!-- Created with Inkscape (http://www.inkscape.org/) -->

<svg
   xmlns:dc="http://purl.org/dc/elements/1.1/"
   xmlns:cc="http://creativecommons.org/ns#"
   xmlns:rdf="http://www.w3.org/1999/02/22-rdf-syntax-ns#"
   xmlns:svg="http://www.w3.org/2000/svg"
   xmlns="http://www.w3.org/2000/svg"
   xmlns:sodipodi="http://sodipodi.sourceforge.net/DTD/sodipodi-0.dtd"
   xmlns:inkscape="http://www.inkscape.org/namespaces/inkscape"
   id="svg2817"
   height="24"
   width="24"
   version="1.0"
   inkscape:version="0.91 r13725"
   sodipodi:docname="teslagrad.svg">
  <defs
     id="defs24" />
  <sodipodi:namedview
     pagecolor="#ffffff"
     bordercolor="#666666"
     borderopacity="1"
     objecttolerance="10"
     gridtolerance="10"
     guidetolerance="10"
     inkscape:pageopacity="0"
     inkscape:pageshadow="2"
     inkscape:window-width="1600"
     inkscape:window-height="849"
     id="namedview22"
     showgrid="false"
     inkscape:zoom="7.03"
     inkscape:cx="-23.066815"
     inkscape:cy="3.8644068"
     inkscape:window-x="0"
     inkscape:window-y="0"
     inkscape:window-maximized="1"
     inkscape:current-layer="svg2817" />
  <metadata
     id="metadata57">
    <rdf:RDF>
      <cc:Work
         rdf:about="">
        <dc:format>image/svg+xml</dc:format>
        <dc:type
           rdf:resource="http://purl.org/dc/dcmitype/StillImage" />
        <dc:title />
      </cc:Work>
    </rdf:RDF>
  </metadata>
  <path
     style="fill:#343054"
     inkscape:connector-curvature="0"
     id="path4136"
     d="M 21.00768,9.9230828 C 21.00768,14.604551 15.473218,22 10.649751,22 5.826284,22 1.6938124,14.610051 2.0268101,9.5920851 2.2527586,6.1826085 6.4817795,1.9201377 8.9482626,2.0011372 9.7761569,2.0817616 8.2865672,2.9127309 9.2796554,2.6420328 10.0323,2.4368742 10.826045,2.3271449 11.646239,2.3271449 c 4.823567,0 9.361436,2.91373 9.361436,7.5954479 z" />
  <path
     style="fill:#2e2e37"
     inkscape:connector-curvature="0"
     id="path4278"
     d="m 18.841195,10.558078 c 0,3.531326 -0.982144,7.970946 -4.599369,10.25193 C 13.063334,21.553503 11.835343,22 10.649851,22 9.6793576,22 8.7368641,21.701002 7.8533701,21.182006 4.3441942,19.12252 4.2160951,13.687057 4.4819433,9.6790845 5.2578879,5.5851126 7.283374,5.816611 9.626408,5.1551155 c 0.752995,-0.2051486 2.817481,-0.2570982 3.637475,-0.2570982 4.823567,0 5.577462,0.9784433 5.577462,5.6604607 z" />
  <path
     style="fill:#dabc9c"
     inkscape:connector-curvature="0"
     id="path4158"
     d="m 16.68871,13.699557 c 0,1.840337 -1.690939,3.499676 -2.588783,5.109965 -1.076742,1.930937 -0.836844,2.340734 -3.015529,2.340734 -3.9953726,-10e-7 -5.3149636,-3.611675 -5.3149636,-7.658948 0,-2.109685 0.1049043,-4.7091174 1.5133397,-6.0464582 1.2936411,-1.2281416 3.4759759,-1.5393394 5.3889629,-1.5393394 2.120086,0 3.162178,1.5345395 3.782924,2.4919329 0.549096,0.8468442 0.234264,3.4025267 0.234264,5.3024637 z" />
  <g
     style="fill:#405168"
     id="g4273"
     transform="matrix(0.49999657,0,0,0.49999657,-0.49217261,1.5089355e-4)">
    <path
       inkscape:connector-curvature="0"
       id="path4179"
       d="m 27.705,11.136 a 3.8893,8.4884 68.075 0 1 -6.4042,6.7784 3.8893,8.4884 68.075 0 1 -9.339,-0.42544 3.8893,8.4884 68.075 0 1 6.4042,-6.7784 3.8893,8.4884 68.075 0 1 9.339,0.42544 z" />
    <path
       inkscape:connector-curvature="0"
       id="path4182"
       d="m 27.712,11.794 c 1.5661,-1.4759 5.7867,-2.4001 9.0122,0.98998 3.2255,3.39008 2.4864,12.487 0.92026,13.963 -1.5661,1.4759 -1.2146,-6.5667 -4.4401,-9.9568 -3.2255,-3.3901 -7.0585,-3.5206 -5.4923,-4.9965 z" />
    <path
       inkscape:connector-curvature="0"
       id="path4184"
       d="m 12.744,16.563 c 2.0494,1.0756 2.3563,4.6803 0.68541,8.0514 -1.6708,3.3711 0.42329,8.8454 -1.6261,7.7698 -2.0494,-1.075 -4.3252,-6.833 -2.6543,-10.204 1.6713,-3.371 1.5453,-6.692 3.5953,-5.617 z" />
  </g>
  <path
     style="opacity:0.1;fill:#ffffff"
     inkscape:connector-curvature="0"
     id="path4266"
     d="m 12.667737,5.6321123 c 0.300128,0.6297456 -0.587096,1.2742912 -2.375684,2.035436 -1.6369884,0.6953452 -3.3952763,0.9662934 -4.2623204,0.6567955 0.02441,0.05387 0.05882,0.1039893 0.1030193,0.150039 0.586846,0.5902459 2.6577318,0.3906023 4.6250681,-0.445832 1.966587,-0.8360942 3.085229,-1.9920363 2.498833,-2.5821323 -0.08718,-0.085844 -0.435287,0.2395084 -0.588896,0.1856288 z" />
  <path
     style="opacity:0.1;fill:#ffffff"
     inkscape:connector-curvature="0"
     id="path4271"
     d="M 18.1117,12.409066 C 18.557397,12.257977 18.233004,11.121625 17.729627,10.021782 17.447819,9.4060364 17.031932,8.7105411 16.535036,8.1692949 16.120253,7.717508 15.602992,7.3633004 15.079346,7.0439526 14.535599,6.7123648 14.042253,6.4726565 13.348457,6.2351081 c 0.05828,-0.02098 0.430017,-0.4050772 0.501847,-0.4079272 0.678995,-0.01684 -0.681195,-0.5525962 0.188939,0.2767681 0.334407,0.3187428 2.376133,1.0489428 3.179428,2.0121362 0.683945,0.8200944 0.932043,1.9367868 1.199292,2.9706798 0.118764,0.459512 0.833344,1.39674 0.173488,1.41324 -0.138434,0.0022 -0.299522,-0.02831 -0.479746,-0.09088 z" />
  <path
     style="fill:#7f90bc;stroke:#33374a;stroke-width:0.34999758;stroke-linecap:round;stroke-linejoin:round"
     inkscape:connector-curvature="0"
     id="rect4155"
     d="m 20.299185,8.9910892 c 0.290328,1.8620368 -0.456667,4.5096688 -1.368741,6.1609578 -1.354541,2.452433 -3.067529,4.026872 -4.927466,5.625461 0,0 2.655182,-4.643618 3.450326,-7.17395 0.382073,-1.215792 0.759695,-2.507633 0.611046,-3.7728745 C 17.952866,8.88159 17.638193,8.1162952 16.925558,7.4759996 16.329612,6.9405533 15.447818,6.6201055 14.654773,6.4956063 13.793379,6.3603523 12.905535,6.3370224 12.039291,6.4370467 10.7269,6.5885907 9.3409099,6.7592345 8.2023677,7.4263899 7.584222,7.7886275 7.0089759,8.3254838 6.7197279,8.9788293 5.9925829,10.621318 6.0542325,12.578255 6.3414005,14.350292 c 0.3737374,2.306085 2.5650824,7.106452 2.5650824,7.106452 l -0.1240191,-0.04996 c 0,0 -1.2497415,-0.575496 -2.2512346,-1.566289 C 5.5527359,18.873501 4.8282409,17.501511 4.3271443,16.583517 3.3120013,14.72353 3.1563024,12.693544 3.5164499,10.607558 3.7412983,8.5985719 4.6182423,6.9375833 6.0087328,5.8455908 8.7737138,3.9034041 12.035191,3.4493572 15.067671,4.1285526 c 2.663231,0.5298963 4.792517,2.3115341 5.231464,4.8633166 z" />
  <rect
     style="fill:#302100"
     id="rect4164"
     transform="matrix(0.90410992,-0.42729995,0.42441005,0.90547011,0,0)"
     rx="0.36127755"
     ry="0.36299247"
     height="0.53754622"
     width="2.9267302"
     y="14.488227"
     x="7.2107339" />
  <rect
     style="fill:#302100"
     id="rect4166"
     ry="0.34835631"
     rx="0.32192725"
     transform="matrix(0.93817159,0.34617058,-0.35268132,0.9357435,0,0)"
     height="0.51584452"
     width="2.6079276"
     y="7.0504484"
     x="10.130404" />
  <ellipse
     style="fill:#302100"
     id="path4168"
     rx="0.68284529"
     ry="1.7264882"
     cy="12.556565"
     cx="8.3132668" />
  <ellipse
     style="fill:#302100"
     id="ellipse4170"
     rx="0.72524178"
     ry="1.8170437"
     transform="matrix(0.99995448,-0.00954105,0.06724277,0.99773664,0,0)"
     cy="12.301404"
     cx="13.072457" />
  <path
     style="fill:#302100"
     inkscape:connector-curvature="0"
     id="rect4174"
     d="m 12.433739,14.190054 c 0.291068,0.345382 1.067242,0.525996 1.239191,1.029542 0.152494,0.446567 -0.03249,0.998644 -0.316438,1.378341 -0.164123,0.219474 -0.442667,0.394967 -0.719645,0.410222 -0.420842,0.02318 -1.032793,-0.104269 -1.157642,-0.499311 -0.03318,-0.105 0.06986,-0.248684 0.177174,-0.280253 0.264418,-0.07778 0.485657,0.413322 0.751695,0.341007 0.472657,-0.128479 0.906144,-0.718795 0.827444,-1.193842 -0.07327,-0.442372 -0.883594,-0.415152 -1.089742,-0.815094 -0.156519,-0.303653 -0.358458,-0.957443 -0.01772,-1.020693 0.08692,0.187944 0.176654,0.492257 0.305673,0.649996 z" />
  <rect
     style="fill:#302100"
     id="rect4177"
     transform="matrix(0.99450068,0.10473007,-0.34057857,0.94021606,0,0)"
     rx="0.47367641"
     ry="0.29624921"
     height="0.43869883"
     width="3.8372712"
     y="18.258207"
     x="15.527223" />
  <path
     style="opacity:0.1;fill:#ffffff"
     inkscape:connector-curvature="0"
     id="path4305"
     d="m 8.9482626,2.0011372 c -2.4664831,-0.081 -6.695954,4.1814713 -6.9219525,7.5909479 -0.01805,0.2724981 -0.02035,0.5539959 -0.01265,0.8394939 0.00305,-0.113499 0.0053,-0.227998 0.0127,-0.339497 0.2261485,-3.4094769 4.4554194,-7.6719477 6.9219525,-7.5909483 0.0235,0.0023 0.0395,0.0072 0.0595,0.0107 0.146999,-0.1904487 0.4024973,-0.4657468 -0.0595,-0.5106965 z m 2.6979814,0.3261477 c -0.819994,0 -1.613489,0.1092993 -2.3659836,0.3144479 -0.0345,0.00935 -0.045,0.00785 -0.073499,0.01465 0.009,0.2526982 -0.6894953,0.6932952 0.073499,0.4853466 0.7524946,-0.2051486 1.5459896,-0.3144478 2.3659836,-0.3144478 4.728968,0 9.180437,2.8018308 9.353436,7.3234495 0.003,-0.076 0.008,-0.1529987 0.008,-0.2274982 0,-4.6819679 -4.537469,-7.5959479 -9.361436,-7.5959479 z" />
  <path
     style="opacity:0.3"
     inkscape:connector-curvature="0"
     id="path4310"
     d="M 20.99968,9.6505847 C 20.827681,14.340053 15.396218,21.500003 10.649251,21.500003 6.127282,21.500003 2.1468093,15.006548 2.0028103,10.058582 1.8773111,15.057048 5.973283,22 10.649251,22 15.472718,22 21.00768,14.604551 21.00768,9.9230828 c 0,-0.091934 -0.0044,-0.1818987 -0.0078,-0.2724581 z" />
</svg>
